common/src/main/resources/icons/plugins/datagrip/expui/materializedLog.svg

<svg xmlns="http://www.w3.org/2000/svg" width="16" height="16" fill="#FFB74D" data-big="true" viewBox="0 0 24 24"><path d="M8 16.61v-1.24l6-3.46V7.23l-5 2.89-5-2.89V13l-1 .58L2 13V5l1.07-.62L9 7.81l3.93-2.27 2-1.16L16 5v8.06L10.92 16l4.05 2.33 5.03-2.9V11l1-.58 1 .58v5.58l-7.03 4.06zm14-6.86-1 .58-1-.58V8.58L21 8l1 .58z"/></svg>

<!--
  - The MIT License (MIT)
  -
  - Copyright (c) 2015-2024 Elior "Mallowigi" Boukhobza
  -
  - Permission is hereby granted, free of charge, to any person obtaining a copy
  - of this software and associated documentation files (the "Software"), to deal
  - in the Software without restriction, including without limitation the rights
  - to use, copy, modify, merge, publish, distribute, sublicense, and/or sell
  - copies of the Software, and to permit persons to whom the Software is
  - furnished to do so, subject to the following conditions:
  -
  - The above copyright notice and this permission notice shall be included in all
  - copies or substantial portions of the Software.
  -
  - THE SOFTWARE IS PROVIDED "AS IS", WITHOUT WARRANTY OF ANY KIND, EXPRESS OR
  - IMPLIED, INCLUDING BUT NOT LIMITED TO THE WARRANTIES OF MERCHANTABILITY,
  - FITNESS FOR A PARTICULAR PURPOSE AND NONINFRINGEMENT. IN NO EVENT SHALL THE
  - AUTHORS OR COPYRIGHT HOLDERS BE LIABLE FOR ANY CLAIM, DAMAGES OR OTHER
  - LIABILITY, WHETHER IN AN ACTION OF CONTRACT, TORT OR OTHERWISE, ARISING FROM,
  - OUT OF OR IN CONNECTION WITH THE SOFTWARE OR THE USE OR OTHER DEALINGS IN THE
  - SOFTWARE.
  -->


<svg data-big="true" xmlns="http://www.w3.org/2000/svg" version="1.1" width="16px" height="16px" fill="#FFB74D"
     viewBox="0 0 24 24">
  <path
    d="M8,16.61V15.37L14,11.91V7.23L9,10.12L4,7.23V13L3,13.58L2,13V5L3.07,4.38L9,7.81L12.93,5.54L14.93,4.38L16,5V13.06L10.92,16L14.97,18.33L20,15.43V11L21,10.42L22,11V16.58L14.97,20.64L8,16.61M22,9.75L21,10.33L20,9.75V8.58L21,8L22,8.58V9.75Z"/>
</svg>
